projects/samara/images/icons/youtube.svg

<svg width="25" height="18" viewBox="0 0 25 18" fill="none" xmlns="http://www.w3.org/2000/svg">
<path fill="currentColor" d="M24.3826 2.96485C24.2417 2.45568 23.9659 1.99144 23.5827 1.61859C23.1995 1.24574 22.7223 0.977357 22.199 0.840306C20.2718 0.332825 12.5277 0.332825 12.5277 0.332825C12.5277 0.332825 4.78362 0.332825 2.85643 0.840306C2.33312 0.977357 1.85599 1.24574 1.47278 1.61859C1.08957 1.99144 0.813736 2.45568 0.672878 2.96485C0.313029 4.87716 0.138405 6.81811 0.1513 8.76217C0.138405 10.7062 0.313029 12.6472 0.672878 14.5595C0.813736 15.0687 1.08957 15.5329 1.47278 15.9058C1.85599 16.2786 2.33312 16.547 2.85643 16.684C4.78362 17.1915 12.5277 17.1915 12.5277 17.1915C12.5277 17.1915 20.2718 17.1915 22.199 16.684C22.7223 16.547 23.1995 16.2786 23.5827 15.9058C23.9659 15.5329 24.2417 15.0687 24.3826 14.5595C24.7424 12.6472 24.917 10.7062 24.9041 8.76217C24.917 6.81811 24.7424 4.87716 24.3826 2.96485ZM10.0524 12.3748V5.1496L16.4793 8.76217L10.0524 12.3748Z" />
</svg>

<svg width="25" height="18" fill="none" xmlns="http://www.w3.org/2000/svg"><path fill="currentColor" d="M24.383 2.965a2.993 2.993 0 00-.8-1.346A3.115 3.115 0 0022.199.84C20.272.333 12.528.333 12.528.333s-7.744 0-9.672.507c-.523.137-1 .406-1.383.779a2.993 2.993 0 00-.8 1.346A30.26 30.26 0 00.15 8.762a30.26 30.26 0 00.522 5.797c.14.51.417.974.8 1.347.383.373.86.641 1.383.778 1.928.508 9.672.508 9.672.508s7.744 0 9.671-.508a3.12 3.12 0 001.384-.778c.383-.373.659-.837.8-1.347.36-1.912.534-3.853.521-5.797a30.263 30.263 0 00-.521-5.797zm-14.33 9.41V5.15l6.426 3.612-6.427 3.613z"/></svg>
